svg/fluentui-system-icons/ic_fluent_braces_28_filled.svg

<svg width="28" height="28" viewBox="0 0 28 28" fill="none" xmlns="http://www.w3.org/2000/svg">
<path d="M7.5 3C5.56843 3 4.00258 4.56585 4.00258 6.49742V11C4.00258 11.5239 3.9875 11.7922 3.85733 12.0519C3.73716 12.2916 3.43978 12.6621 2.5528 13.1055C2.21401 13.2749 2.00001 13.6212 2 13.9999C1.99999 14.3787 2.21399 14.725 2.55277 14.8944C3.43646 15.3362 3.71348 15.6945 3.83571 15.9728C3.98589 16.3147 4.00258 16.7289 4.00258 17.5652L4.00258 21.5026C4.00258 23.4342 5.56843 25 7.5 25C8.05228 25 8.5 24.5523 8.5 24C8.5 23.4477 8.05228 23 7.5 23C6.673 23 6.00258 22.3296 6.00258 21.5026L6.00263 17.477C6.00322 16.7669 6.00392 15.9359 5.66687 15.1685C5.47388 14.7291 5.19141 14.3471 4.81328 14.0042C5.17974 13.6804 5.4534 13.3309 5.64525 12.9481C6.00376 12.233 6.00307 11.5258 6.00261 11.0494L6.00258 6.49742C6.00258 5.67042 6.673 5 7.5 5C8.05228 5 8.5 4.55228 8.5 4C8.5 3.44772 8.05228 3 7.5 3ZM20.5 3C22.4316 3 23.9974 4.56585 23.9974 6.49742V11C23.9974 11.5239 24.0125 11.7922 24.1427 12.0519C24.2628 12.2916 24.5602 12.6621 25.4472 13.1055C25.786 13.2749 26 13.6212 26 13.9999C26 14.3787 25.786 14.725 25.4472 14.8944C24.5635 15.3362 24.2865 15.6945 24.1643 15.9728C24.0141 16.3147 23.9974 16.7289 23.9974 17.5652V21.5026C23.9974 23.4342 22.4316 25 20.5 25C19.9477 25 19.5 24.5523 19.5 24C19.5 23.4477 19.9477 23 20.5 23C21.327 23 21.9974 22.3296 21.9974 21.5026L21.9974 17.477C21.9968 16.7669 21.9961 15.9359 22.3331 15.1685C22.5261 14.7291 22.8086 14.3471 23.1867 14.0042C22.8203 13.6804 22.5466 13.3309 22.3547 12.9481C21.9962 12.233 21.9969 11.5258 21.9974 11.0494L21.9974 6.49742C21.9974 5.67042 21.327 5 20.5 5C19.9477 5 19.5 4.55228 19.5 4C19.5 3.44772 19.9477 3 20.5 3Z" fill="#212121"/>
</svg>

<svg xmlns="http://www.w3.org/2000/svg" width="28" height="28"><path d="M7.5 3a3.497 3.497 0 0 0-3.497 3.497V11c0 .524-.016.792-.146 1.052-.12.24-.417.61-1.304 1.053a1 1 0 0 0 0 1.79c.883.441 1.16.8 1.283 1.078.15.342.167.756.167 1.592v3.938A3.497 3.497 0 0 0 7.5 25a1 1 0 1 0 0-2c-.827 0-1.497-.67-1.497-1.497v-4.026c0-.71 0-1.541-.336-2.309a3.404 3.404 0 0 0-.854-1.164c.367-.324.64-.673.832-1.056.359-.715.358-1.422.358-1.899V6.497C6.003 5.67 6.673 5 7.5 5a1 1 0 0 0 0-2Zm13 0a3.497 3.497 0 0 1 3.497 3.497V11c0 .524.015.792.146 1.052.12.24.417.61 1.304 1.053a1 1 0 0 1 0 1.79c-.883.441-1.16.8-1.283 1.078-.15.342-.167.756-.167 1.592v3.938A3.497 3.497 0 0 1 20.5 25a1 1 0 1 1 0-2c.827 0 1.497-.67 1.497-1.497v-4.026c0-.71 0-1.541.336-2.309a3.42 3.42 0 0 1 .854-1.164 3.5 3.5 0 0 1-.832-1.056c-.359-.715-.358-1.422-.358-1.899V6.497C21.997 5.67 21.327 5 20.5 5a1 1 0 1 1 0-2Z"/></svg>
